public/cards/6-C.svg

<?xml version="1.0" encoding="UTF-8"?>
<svg width="360px" height="540px" viewBox="0 0 360 540" version="1.1" xmlns="http://www.w3.org/2000/svg" xmlns:xlink="http://www.w3.org/1999/xlink">
    <!-- Generator: Sketch 55.2 (78181) - https://sketchapp.com -->
    <title>6-C</title>
    <desc>Created with Sketch.</desc>
    <g id="Page-1" stroke="none" stroke-width="1" fill="none" fill-rule="evenodd">
        <g id="English_pattern_playing_cards_deck" transform="translate(-1950.000000, -1.000000)" fill-rule="nonzero">
            <g id="6-C" transform="translate(1950.000000, 0.637820)">
                <rect id="rect6472-41" stroke="#000000" stroke-width="0.99999976" fill="#FFFFFF" x="0.5" y="0.86218" width="359" height="539" rx="29.944447"></rect>
                <path d="M30,30.36208 C24.46,30.36208 20,34.82208 20,40.36208 L20,60.36208 L20,70.36208 C20,75.90208 24.46,80.36208 30,80.36208 C35.54,80.36208 40,75.90208 40,70.36208 L40,60.36208 C40,54.82208 35.54,50.36208 30,50.36208 C28.17736,50.36208 26.46848,50.86063 25,51.70583 L25,40.36208 C25,37.59208 27.23,35.36208 30,35.36208 C32.77,35.36208 35,37.59208 35,40.36208 L35,41.36208 L40,41.36208 L40,40.36208 C40,34.82208 35.54,30.36208 30,30.36208 Z M30,55.36208 C32.77,55.36208 35,57.59208 35,60.36208 L35,70.36208 C35,73.13208 32.77,75.36208 30,75.36208 C27.23,75.36208 25,73.13208 25,70.36208 L25,60.36208 C25,57.59208 27.23,55.36208 30,55.36208 Z" id="rect3163-7-1-7-3-1-96" fill="#000000"></path>
                <path d="M330,510.3622 C335.54,510.3622 340,505.9022 340,500.3622 L340,480.36216 L340,470.36216 C340,464.82216 335.54,460.36216 330,460.36216 C324.46,460.36216 320,464.82216 320,470.36216 L320,480.36216 C320,485.9022 324.46,490.3622 330,490.3622 C331.82264,490.3622 333.53152,489.8637 335,489.0185 L335,500.3622 C335,503.1322 332.77,505.3622 330,505.3622 C327.23,505.3622 325,503.1322 325,500.3622 L325,499.3622 L320,499.3622 L320,500.3622 C320,505.9022 324.46,510.3622 330,510.3622 Z M330,485.3622 C327.23,485.3622 325,483.1322 325,480.36216 L325,470.36216 C325,467.59216 327.23,465.36216 330,465.36216 C332.77,465.36216 335,467.59216 335,470.36216 L335,480.36216 C335,483.1322 332.77,485.3622 330,485.3622 Z" id="rect3163-7-1-7-3-1-9-9" fill="#000000"></path>
                <path d="M95,101.36218 C96,105.36218 100,115.36218 107,115.36218 C116,115.36218 120,107.36218 120,97.36218 C120,90.36218 117.42105,85.74989 115,80.36218 C112.42212,74.62545 108.62068,69.50477 105,64.36218 C100.3547,57.76428 90,45.36218 90,45.36218 C90,45.36218 79.6453,57.76428 75,64.36218 C71.37932,69.50477 67.57788,74.62545 65,80.36218 C62.57895,85.74989 60,90.36218 60,97.36218 C60,107.36218 64,115.36218 73,115.36218 C80,115.36218 84,105.36218 85,101.36218 C86,100.36218 86,101.36218 86,102.36218 C85,110.36218 85,112.36218 84,118.36218 C83,124.36218 80,135.36218 80,135.36218 C85,133.36218 95,133.36218 100,135.36218 C100,135.36218 97,124.36218 96,118.36218 C95,112.36218 95,110.36218 94,102.36218 C94,101.36218 94,100.36218 95,101.36218 Z" id="path3037-7-825" fill="#000000"></path>
                <path d="M275,101.36218 C276,105.36218 280,115.36218 287,115.36218 C296,115.36218 300,107.36218 300,97.36218 C300,90.36218 297.42105,85.74989 295,80.36218 C292.42212,74.62545 288.62068,69.50477 285,64.36218 C280.3547,57.76428 270,45.36218 270,45.36218 C270,45.36218 259.6453,57.76428 255,64.36218 C251.37932,69.50477 247.57788,74.62545 245,80.36218 C242.57895,85.74989 240,90.36218 240,97.36218 C240,107.36218 244,115.36218 253,115.36218 C260,115.36218 264,105.36218 265,101.36218 C266,100.36218 266,101.36218 266,102.36218 C265,110.36218 265,112.36218 264,118.36218 C263,124.36218 260,135.36218 260,135.36218 C265,133.36218 275,133.36218 280,135.36218 C280,135.36218 277,124.36218 276,118.36218 C275,112.36218 275,110.36218 274,102.36218 C274,101.36218 274,100.36218 275,101.36218 Z" id="path3037-7-17-5" fill="#000000"></path>
                <path d="M95,281.36218 C96,285.36218 100,295.36218 107,295.36218 C116,295.36218 120,287.36218 120,277.36218 C120,270.36218 117.42105,265.74989 115,260.36218 C112.42212,254.62545 108.62068,249.50477 105,244.36218 C100.3547,237.76428 90,225.36218 90,225.36218 C90,225.36218 79.6453,237.76428 75,244.36218 C71.37932,249.50477 67.57788,254.62545 65,260.36218 C62.57895,265.74989 60,270.36218 60,277.36218 C60,287.36218 64,295.36218 73,295.36218 C80,295.36218 84,285.36218 85,281.36218 C86,280.36218 86,281.36218 86,282.36218 C85,290.36218 85,292.36218 84,298.36218 C83,304.36218 80,315.36218 80,315.36218 C85,313.36218 95,313.36218 100,315.36218 C100,315.36218 97,304.36218 96,298.36218 C95,292.36218 95,290.36218 94,282.36218 C94,281.36218 94,280.36218 95,281.36218 Z" id="path3037-7-4-49" fill="#000000"></path>
                <path d="M275,281.36218 C276,285.36218 280,295.36218 287,295.36218 C296,295.36218 300,287.36218 300,277.36218 C300,270.36218 297.42105,265.74989 295,260.36218 C292.42212,254.62545 288.62068,249.50477 285,244.36218 C280.3547,237.76428 270,225.36218 270,225.36218 C270,225.36218 259.6453,237.76428 255,244.36218 C251.37932,249.50477 247.57788,254.62545 245,260.36218 C242.57895,265.74989 240,270.36218 240,277.36218 C240,287.36218 244,295.36218 253,295.36218 C260,295.36218 264,285.36218 265,281.36218 C266,280.36218 266,281.36218 266,282.36218 C265,290.36218 265,292.36218 264,298.36218 C263,304.36218 260,315.36218 260,315.36218 C265,313.36218 275,313.36218 280,315.36218 C280,315.36218 277,304.36218 276,298.36218 C275,292.36218 275,290.36218 274,282.36218 C274,281.36218 274,280.36218 275,281.36218 Z" id="path3037-7-0-1" fill="#000000"></path>
                <path d="M95,439.3622 C96,435.3622 100,425.3622 107,425.3622 C116,425.3622 120,433.3622 120,443.3622 C120,450.3622 117.42105,454.97449 115,460.3622 C112.42212,466.09893 108.62068,471.21961 105,476.3622 C100.3547,482.9601 90,495.3622 90,495.3622 C90,495.3622 79.6453,482.9601 75,476.3622 C71.37932,471.21961 67.57788,466.09893 65,460.3622 C62.57895,454.97449 60,450.3622 60,443.3622 C60,433.3622 64,425.3622 73,425.3622 C80,425.3622 84,435.3622 85,439.3622 C86,440.3622 86,439.3622 86,438.3622 C85,430.3622 85,428.3622 84,422.3622 C83,416.3622 80,405.36218 80,405.36218 C85,407.36218 95,407.36218 100,405.36218 C100,405.36218 97,416.3622 96,422.3622 C95,428.3622 95,430.3622 94,438.3622 C94,439.3622 94,440.3622 95,439.3622 Z" id="path3037-7-9" fill="#000000"></path>
                <path d="M275,439.3622 C276,435.3622 280,425.3622 287,425.3622 C296,425.3622 300,433.3622 300,443.3622 C300,450.3622 297.42105,454.97449 295,460.3622 C292.42212,466.09893 288.62068,471.21961 285,476.3622 C280.3547,482.9601 270,495.3622 270,495.3622 C270,495.3622 259.6453,482.9601 255,476.3622 C251.37932,471.21961 247.57788,466.09893 245,460.3622 C242.57895,454.97449 240,450.3622 240,443.3622 C240,433.3622 244,425.3622 253,425.3622 C260,425.3622 264,435.3622 265,439.3622 C266,440.3622 266,439.3622 266,438.3622 C265,430.3622 265,428.3622 264,422.3622 C263,416.3622 260,405.36218 260,405.36218 C265,407.36218 275,407.36218 280,405.36218 C280,405.36218 277,416.3622 276,422.3622 C275,428.3622 275,430.3622 274,438.3622 C274,439.3622 274,440.3622 275,439.3622 Z" id="path3037-7-48-2" fill="#000000"></path>
                <path d="M32.5,118.36218 C33,120.36218 35,125.36218 38.5,125.36218 C43,125.36218 45,121.36218 45,116.36218 C45,112.86218 43.710525,110.55604 42.5,107.86218 C41.21106,104.99382 39.31034,102.43348 37.5,99.86218 C35.17735,96.56323 30,90.36218 30,90.36218 C30,90.36218 24.82265,96.56323 22.5,99.86218 C20.68966,102.43348 18.78894,104.99382 17.5,107.86218 C16.289475,110.55604 15,112.86218 15,116.36218 C15,121.36218 17,125.36218 21.5,125.36218 C25,125.36218 27,120.36218 27.5,118.36218 C28,117.86218 28,118.36218 28,118.86218 C27.5,122.86218 27.5,123.86218 27,126.86218 C26.5,129.86218 25,135.36218 25,135.36218 C27.5,134.36218 32.5,134.36218 35,135.36218 C35,135.36218 33.5,129.86218 33,126.86218 C32.5,123.86218 32.5,122.86218 32,118.86218 C32,118.36218 32,117.86218 32.5,118.36218 Z" id="path3037-7-4-8" fill="#000000"></path>
                <path d="M332.5,422.36218 C333,420.36218 335,415.36218 338.5,415.36218 C343,415.36218 345,419.36218 345,424.36218 C345,427.86218 343.71053,430.16832 342.5,432.86218 C341.21106,435.73054 339.31034,438.29088 337.5,440.86218 C335.17735,444.16113 330,450.36218 330,450.36218 C330,450.36218 324.82265,444.16113 322.5,440.86218 C320.68966,438.29088 318.78894,435.73054 317.5,432.86218 C316.28947,430.16832 315,427.86218 315,424.36218 C315,419.36218 317,415.36218 321.5,415.36218 C325,415.36218 327,420.36218 327.5,422.36218 C328,422.86218 328,422.36218 328,421.86218 C327.5,417.86218 327.5,416.86218 327,413.86218 C326.5,410.86218 325,405.36218 325,405.36218 C327.5,406.36218 332.5,406.36218 335,405.36218 C335,405.36218 333.5,410.86218 333,413.86218 C332.5,416.86218 332.5,417.86218 332,421.86218 C332,422.36218 332,422.86218 332.5,422.36218 Z" id="path3037-7-4-2" fill="#000000"></path>
            </g>
        </g>
    </g>
</svg>

<svg width="360" height="540" xmlns="http://www.w3.org/2000/svg"><g transform="translate(0 -.362)" fill-rule="nonzero" fill="none"><rect stroke="#000" fill="#FFF" x=".5" y=".862" width="359" height="539" rx="29.944"/><path d="M30 30.362c-5.54 0-10 4.46-10 10v30c0 5.54 4.46 10 10 10s10-4.46 10-10v-10c0-5.54-4.46-10-10-10-1.823 0-3.532.499-5 1.344V40.362c0-2.77 2.23-5 5-5s5 2.23 5 5v1h5v-1c0-5.54-4.46-10-10-10zm0 25c2.77 0 5 2.23 5 5v10c0 2.77-2.23 5-5 5s-5-2.23-5-5v-10c0-2.77 2.23-5 5-5zM330 510.362c5.54 0 10-4.46 10-10v-30c0-5.54-4.46-10-10-10s-10 4.46-10 10v10c0 5.54 4.46 10 10 10 1.823 0 3.532-.498 5-1.344v11.344c0 2.77-2.23 5-5 5s-5-2.23-5-5v-1h-5v1c0 5.54 4.46 10 10 10zm0-25c-2.77 0-5-2.23-5-5v-10c0-2.77 2.23-5 5-5s5 2.23 5 5v10c0 2.77-2.23 5-5 5zM95 101.362c1 4 5 14 12 14 9 0 13-8 13-18 0-7-2.579-11.612-5-17-2.578-5.737-6.38-10.857-10-16-4.645-6.598-15-19-15-19s-10.355 12.402-15 19c-3.62 5.143-7.422 10.263-10 16-2.421 5.388-5 10-5 17 0 10 4 18 13 18 7 0 11-10 12-14 1-1 1 0 1 1-1 8-1 10-2 16s-4 17-4 17c5-2 15-2 20 0 0 0-3-11-4-17s-1-8-2-16c0-1 0-2 1-1zM275 101.362c1 4 5 14 12 14 9 0 13-8 13-18 0-7-2.579-11.612-5-17-2.578-5.737-6.38-10.857-10-16-4.645-6.598-15-19-15-19s-10.355 12.402-15 19c-3.62 5.143-7.422 10.263-10 16-2.421 5.388-5 10-5 17 0 10 4 18 13 18 7 0 11-10 12-14 1-1 1 0 1 1-1 8-1 10-2 16s-4 17-4 17c5-2 15-2 20 0 0 0-3-11-4-17s-1-8-2-16c0-1 0-2 1-1zM95 281.362c1 4 5 14 12 14 9 0 13-8 13-18 0-7-2.579-11.612-5-17-2.578-5.737-6.38-10.857-10-16-4.645-6.598-15-19-15-19s-10.355 12.402-15 19c-3.62 5.143-7.422 10.263-10 16-2.421 5.388-5 10-5 17 0 10 4 18 13 18 7 0 11-10 12-14 1-1 1 0 1 1-1 8-1 10-2 16s-4 17-4 17c5-2 15-2 20 0 0 0-3-11-4-17s-1-8-2-16c0-1 0-2 1-1zM275 281.362c1 4 5 14 12 14 9 0 13-8 13-18 0-7-2.579-11.612-5-17-2.578-5.737-6.38-10.857-10-16-4.645-6.598-15-19-15-19s-10.355 12.402-15 19c-3.62 5.143-7.422 10.263-10 16-2.421 5.388-5 10-5 17 0 10 4 18 13 18 7 0 11-10 12-14 1-1 1 0 1 1-1 8-1 10-2 16s-4 17-4 17c5-2 15-2 20 0 0 0-3-11-4-17s-1-8-2-16c0-1 0-2 1-1zM95 439.362c1-4 5-14 12-14 9 0 13 8 13 18 0 7-2.579 11.612-5 17-2.578 5.737-6.38 10.858-10 16-4.645 6.598-15 19-15 19s-10.355-12.402-15-19c-3.62-5.142-7.422-10.263-10-16-2.421-5.388-5-10-5-17 0-10 4-18 13-18 7 0 11 10 12 14 1 1 1 0 1-1-1-8-1-10-2-16s-4-17-4-17c5 2 15 2 20 0 0 0-3 11-4 17s-1 8-2 16c0 1 0 2 1 1zM275 439.362c1-4 5-14 12-14 9 0 13 8 13 18 0 7-2.579 11.612-5 17-2.578 5.737-6.38 10.858-10 16-4.645 6.598-15 19-15 19s-10.355-12.402-15-19c-3.62-5.142-7.422-10.263-10-16-2.421-5.388-5-10-5-17 0-10 4-18 13-18 7 0 11 10 12 14 1 1 1 0 1-1-1-8-1-10-2-16s-4-17-4-17c5 2 15 2 20 0 0 0-3 11-4 17s-1 8-2 16c0 1 0 2 1 1zM32.5 118.362c.5 2 2.5 7 6 7 4.5 0 6.5-4 6.5-9 0-3.5-1.29-5.806-2.5-8.5-1.289-2.868-3.19-5.429-5-8-2.323-3.299-7.5-9.5-7.5-9.5s-5.177 6.201-7.5 9.5c-1.81 2.571-3.711 5.132-5 8-1.21 2.694-2.5 5-2.5 8.5 0 5 2 9 6.5 9 3.5 0 5.5-5 6-7 .5-.5.5 0 .5.5-.5 4-.5 5-1 8s-2 8.5-2 8.5c2.5-1 7.5-1 10 0 0 0-1.5-5.5-2-8.5s-.5-4-1-8c0-.5 0-1 .5-.5zM332.5 422.362c.5-2 2.5-7 6-7 4.5 0 6.5 4 6.5 9 0 3.5-1.29 5.806-2.5 8.5-1.289 2.869-3.19 5.429-5 8-2.323 3.3-7.5 9.5-7.5 9.5s-5.177-6.2-7.5-9.5c-1.81-2.571-3.711-5.131-5-8-1.21-2.694-2.5-5-2.5-8.5 0-5 2-9 6.5-9 3.5 0 5.5 5 6 7 .5.5.5 0 .5-.5-.5-4-.5-5-1-8s-2-8.5-2-8.5c2.5 1 7.5 1 10 0 0 0-1.5 5.5-2 8.5s-.5 4-1 8c0 .5 0 1 .5.5z" fill="#000"/></g></svg>
